wp-content/plugins/one-click-demo-import/assets/images/icons/widgets.svg

<svg width="56" height="49" viewBox="0 0 56 49" fill="none" xmlns="http://www.w3.org/2000/svg">
<path d="M55.25 45.25V3.625C55.25 2.70833 54.9167 1.95833 54.25 1.375C53.6667 0.708333 52.9583 0.375 52.125 0.375H4.125C3.20833 0.375 2.41667 0.708333 1.75 1.375C1.16667 1.95833 0.875 2.70833 0.875 3.625V45.25C0.875 46.0833 1.16667 46.8333 1.75 47.5C2.41667 48.0833 3.20833 48.375 4.125 48.375H52.125C52.9583 48.375 53.6667 48.0833 54.25 47.5C54.9167 46.8333 55.25 46.0833 55.25 45.25ZM7.25 6.75H48.875V19.625H7.25V6.75ZM10.5 10V16.375H20.125V10H10.5ZM23.25 10V16.375H32.875V10H23.25ZM36.125 10V16.375H45.75V10H36.125ZM8.875 26C9.375 26 9.75 26.1667 10 26.5C10.3333 26.75 10.5 27.125 10.5 27.625C10.5 28.0417 10.3333 28.4167 10 28.75C9.75 29.0833 9.375 29.25 8.875 29.25C8.45833 29.25 8.08333 29.0833 7.75 28.75C7.41667 28.4167 7.25 28.0417 7.25 27.625C7.25 27.125 7.41667 26.75 7.75 26.5C8.08333 26.1667 8.45833 26 8.875 26ZM13.75 26H26.5V29.25H13.75V26ZM32.875 26H48.875V42H32.875V26ZM8.875 32.375C9.375 32.375 9.75 32.5417 10 32.875C10.3333 33.2083 10.5 33.5833 10.5 34C10.5 34.4167 10.3333 34.7917 10 35.125C9.75 35.4583 9.375 35.625 8.875 35.625C8.45833 35.625 8.08333 35.4583 7.75 35.125C7.41667 34.7917 7.25 34.4167 7.25 34C7.25 33.5833 7.41667 33.2083 7.75 32.875C8.08333 32.5417 8.45833 32.375 8.875 32.375ZM13.75 32.375H26.5V35.625H13.75V32.375ZM36.125 32.375V38.75H45.75V32.375H36.125ZM8.875 38.75C9.375 38.75 9.75 38.9167 10 39.25C10.3333 39.5833 10.5 40 10.5 40.5C10.5 40.9167 10.3333 41.2917 10 41.625C9.75 41.875 9.375 42 8.875 42C8.45833 42 8.08333 41.875 7.75 41.625C7.41667 41.2917 7.25 40.9167 7.25 40.5C7.25 40 7.41667 39.5833 7.75 39.25C8.08333 38.9167 8.45833 38.75 8.875 38.75ZM13.75 38.75H26.5V42H13.75V38.75Z" fill="#999999"/>
</svg>

<svg xmlns="http://www.w3.org/2000/svg" width="56" height="49" fill="none"><path fill="#999" d="M55.25 45.25V3.625q0-1.375-1-2.25-.875-1-2.125-1h-48q-1.375 0-2.375 1-.875.875-.875 2.25V45.25q0 1.25.875 2.25 1 .875 2.375.875h48q1.25 0 2.125-.875 1-1 1-2.25m-48-38.5h41.625v12.875H7.25zM10.5 10v6.375h9.625V10zm12.75 0v6.375h9.625V10zm12.875 0v6.375h9.625V10zM8.875 26q.75 0 1.125.5.5.375.5 1.125 0 .626-.5 1.125-.375.5-1.125.5-.625 0-1.125-.5t-.5-1.125q0-.75.5-1.125.5-.5 1.125-.5m4.875 0H26.5v3.25H13.75zm19.125 0h16v16h-16zm-24 6.375q.75 0 1.125.5.5.5.5 1.125 0 .626-.5 1.125-.375.5-1.125.5-.625 0-1.125-.5T7.25 34t.5-1.125 1.125-.5m4.875 0H26.5v3.25H13.75zm22.375 0v6.375h9.625v-6.375zM8.875 38.75q.75 0 1.125.5.5.5.5 1.25 0 .626-.5 1.125Q9.625 42 8.875 42q-.625 0-1.125-.375-.5-.5-.5-1.125 0-.75.5-1.25t1.125-.5m4.875 0H26.5V42H13.75z"/></svg>
